packages/icons/svgs/duotone/increase-duotone.svg

<svg width="24" height="24" viewBox="0 0 24 24" fill="none" xmlns="http://www.w3.org/2000/svg">
<path fill-rule="evenodd" clip-rule="evenodd" d="M12.7071 2.29289C12.3166 1.90237 11.6834 1.90237 11.2929 2.29289L6.29289 7.29289C5.90237 7.68342 5.90237 8.31658 6.29289 8.70711C6.68342 9.09763 7.31658 9.09763 7.70711 8.70711L12 4.41421L16.2929 8.70711C16.6834 9.09763 17.3166 9.09763 17.7071 8.70711C18.0976 8.31658 18.0976 7.68342 17.7071 7.29289L12.7071 2.29289ZM7.70711 15.2929C7.31658 14.9024 6.68342 14.9024 6.29289 15.2929C5.90237 15.6834 5.90237 16.3166 6.29289 16.7071L11.2929 21.7071C11.6834 22.0976 12.3166 22.0976 12.7071 21.7071L17.7071 16.7071C18.0976 16.3166 18.0976 15.6834 17.7071 15.2929C17.3166 14.9024 16.6834 14.9024 16.2929 15.2929L12 19.5858L7.70711 15.2929Z" fill="black"/>
</svg>

<svg width="24" height="24" viewBox="0 0 24 24" xmlns="http://www.w3.org/2000/svg"><path fill-rule="evenodd" clip-rule="evenodd" d="M12.707 2.293a1 1 0 0 0-1.414 0l-5 5a1 1 0 0 0 1.414 1.414L12 4.414l4.293 4.293a1 1 0 1 0 1.414-1.414l-5-5Zm-5 13a1 1 0 0 0-1.414 1.414l5 5a1 1 0 0 0 1.414 0l5-5a1 1 0 0 0-1.414-1.414L12 19.586l-4.293-4.293Z"/></svg>
